contributed-vectors/reebee.svg

<?xml version="1.0" encoding="UTF-8" standalone="no"?>
<!-- Created with Inkscape (http://www.inkscape.org/) -->

<svg
   width="192"
   height="192"
   viewBox="0 0 50.799999 50.800001"
   version="1.1"
   id="svg5"
   sodipodi:docname="reebee.svg"
   inkscape:version="1.1.1 (3bf5ae0d25, 2021-09-20)"
   inkscape:export-filename="/home/jphilippe/inkscape/reebee.png"
   inkscape:export-xdpi="96"
   inkscape:export-ydpi="96"
   xmlns:inkscape="http://www.inkscape.org/namespaces/inkscape"
   xmlns:sodipodi="http://sodipodi.sourceforge.net/DTD/sodipodi-0.dtd"
   xmlns:xlink="http://www.w3.org/1999/xlink"
   xmlns="http://www.w3.org/2000/svg"
   xmlns:svg="http://www.w3.org/2000/svg">
  <sodipodi:namedview
     id="namedview7"
     pagecolor="#c4c4c4"
     bordercolor="#000000"
     borderopacity="1"
     inkscape:pageshadow="0"
     inkscape:pageopacity="0"
     inkscape:pagecheckerboard="false"
     inkscape:document-units="px"
     showgrid="false"
     units="px"
     width="192px"
     inkscape:zoom="1.1883979"
     inkscape:cx="-66.47605"
     inkscape:cy="71.10413"
     inkscape:window-width="1884"
     inkscape:window-height="1055"
     inkscape:window-x="36"
     inkscape:window-y="0"
     inkscape:window-maximized="1"
     inkscape:current-layer="layer1" />
  <defs
     id="defs2">
    <style
       id="style2980">.a{fill:none;stroke:#b1b5bd;stroke-linecap:round;stroke-linejoin:round;isolation:isolate;opacity:0.63;}</style>
    <path
       id="path0_fill"
       fill-rule="evenodd"
       d="M 0 13.9226L 0 27.0322L 6.73155 27.0322L 6.73155 13.1095C 6.73155 11.0773 7.17951 9.58769 8.07735 8.63735C 8.97456 7.69019 10.3527 7.21534 12.213 7.21534L 14.4249 7.21534L 14.4249 0L 13.4631 0C 11.7321 0 10.0492 0.238702 8.41444 0.711002C 6.7797 1.18586 5.35153 1.93005 4.13499 2.94677C 2.85128 4.03178 1.84129 5.4723 1.10566 7.26576C 0.367501 9.06178 0 11.2803 0 13.9226Z" />
    <path
       id="path1_fill"
       fill-rule="evenodd"
       d="M 16.0889 15.5561C 17.0524 16.9035 17.5328 18.7877 17.5328 21.2124C 17.5328 23.906 17.0524 25.9602 16.0889 27.3743C 15.1247 28.7884 13.7436 29.4951 11.9467 29.4951C 10.2114 29.4951 8.86321 28.7884 7.90034 27.3743C 6.99968 26.0966 6.55157 24.0405 6.55157 21.2124C 6.55157 18.7877 7.03332 16.8693 7.99619 15.4552C 8.95969 14.1084 10.3396 13.4347 12.139 13.4347C 13.8077 13.4347 15.1247 14.1414 16.0889 15.5561ZM 6.55157 11.515L 6.55157 3.43527C 6.55157 2.49192 6.22977 1.68369 5.58743 1.0106C 4.94446 0.337499 4.17391 0 3.27642 0L 0 0L 0 23.1327C 0 27.9142 1.3164 31.1471 3.95049 32.8282C 6.58204 34.5132 9.44145 35.3544 12.5243 35.3544C 14.1282 35.3544 15.7512 35.0664 17.3894 34.4954C 19.027 33.9245 20.3281 32.9976 21.2904 31.7174C 23.2174 29.0916 24.1803 25.6919 24.1803 21.515C 24.1803 17.3419 23.2174 13.9396 21.2904 11.3132C 19.3634 8.68682 16.8911 7.37425 13.8731 7.37425C 12.2018 7.37425 10.7902 7.71238 9.6344 8.38485C 8.28498 9.19243 7.25801 10.2367 6.55157 11.515Z" />
    <path
       id="path2_fill"
       fill-rule="evenodd"
       d="M 28.5896 1.11747C 28.752 0.991469 28.172 -0.0943169 27.9623 0.0066135C 24.7654 1.54754 21.2148 2.85961 14.3998 2.9014C 7.5848 2.85961 4.03356 1.54754 0.836749 0.0066135C 0.626999 -0.0943169 -0.139978 0.991469 0.0223873 1.11747L 0.0876583 1.16786C 2.37111 2.93109 6.64852 6.234 14.2122 6.37026C 21.8491 6.23269 26.3228 2.86733 28.5896 1.11747ZM 14.2122 6.37347C 14.2501 6.37411 14.2122 6.37733 14.2122 6.37733L 14.2122 6.37798C 14.2122 6.37798 14.1743 6.37411 14.2122 6.37347Z" />
  </defs>
  <g
     inkscape:label="Calque 1"
     inkscape:groupmode="layer"
     id="layer1"
     style="display:inline">
    <circle
       class="a"
       cx="25.4"
       cy="25.4"
       r="23.283333"
       id="circle1085"
       style="fill:#99bdfe;fill-opacity:1;stroke:none;stroke-width:0.264583;opacity:1" />
    <g
       id="g988"
       transform="matrix(0.43051426,0,0,0.43051426,857.47637,-274.85442)"
       style="fill:#ffffff;fill-opacity:1;opacity:1">
      <g
         id="g978"
         style="fill:#ffffff;fill-opacity:1">
        <use
           xlink:href="#path0_fill"
           transform="translate(-1953,681.549)"
           fill="#00a9ff"
           id="use976"
           x="0"
           y="0"
           width="100%"
           height="100%"
           style="fill:#ffffff;fill-opacity:1" />
      </g>
      <g
         id="g982"
         style="fill:#ffffff;fill-opacity:1">
        <use
           xlink:href="#path1_fill"
           transform="translate(-1936.68,675)"
           fill="#00a9ff"
           id="use980"
           x="0"
           y="0"
           width="100%"
           height="100%"
           style="fill:#ffffff;fill-opacity:1" />
      </g>
      <g
         id="g986"
         style="fill:#ffffff;fill-opacity:1">
        <use
           xlink:href="#path2_fill"
           transform="translate(-1948.85,713.486)"
           fill="#00a9ff"
           id="use984"
           x="0"
           y="0"
           width="100%"
           height="100%"
           style="fill:#ffffff;fill-opacity:1" />
      </g>
    </g>
  </g>
</svg>

<svg xmlns="http://www.w3.org/2000/svg" xmlns:xlink="http://www.w3.org/1999/xlink" width="192" height="192" viewBox="0 0 50.8 50.8"><defs><path id="a" fill-rule="evenodd" d="M0 13.923v13.11h6.732V13.108c0-2.032.448-3.521 1.345-4.472.898-.947 2.276-1.422 4.136-1.422h2.212V0h-.962a18.1 18.1 0 0 0-5.049.711C6.78 1.186 5.352 1.93 4.135 2.947c-1.284 1.085-2.294 2.525-3.03 4.319C.369 9.062 0 11.28 0 13.923Z"/><path id="b" fill-rule="evenodd" d="M16.089 15.556c.963 1.348 1.444 3.232 1.444 5.656 0 2.694-.48 4.748-1.444 6.162-.964 1.414-2.345 2.121-4.142 2.121-1.736 0-3.084-.707-4.047-2.12-.9-1.278-1.348-3.334-1.348-6.163 0-2.424.481-4.343 1.444-5.757.964-1.347 2.344-2.02 4.143-2.02 1.669 0 2.986.706 3.95 2.121Zm-9.537-4.041v-8.08c0-.943-.322-1.751-.965-2.424C4.944.337 4.174 0 3.277 0H0v23.133c0 4.781 1.316 8.014 3.95 9.695 2.632 1.685 5.491 2.526 8.574 2.526 1.604 0 3.227-.288 4.865-.859 1.638-.57 2.94-1.497 3.901-2.778 1.927-2.625 2.89-6.025 2.89-10.202 0-4.173-.963-7.575-2.89-10.202-1.927-2.626-4.399-3.939-7.417-3.939-1.671 0-3.083.338-4.239 1.01-1.349.808-2.376 1.853-3.082 3.131Z"/><path id="c" fill-rule="evenodd" d="M28.59 1.117c.162-.126-.418-1.211-.628-1.11C24.765 1.547 21.215 2.86 14.4 2.9 7.585 2.86 4.034 1.548.837.007.627-.094-.14.99.022 1.117l.066.05C2.37 2.932 6.648 6.235 14.212 6.37c7.637-.137 12.11-3.503 14.378-5.253ZM14.212 6.373c.038.001 0 .004 0 .004v.001s-.038-.004 0-.005Z"/></defs><g style="display:inline"><circle cx="25.4" cy="25.4" r="23.283" style="fill:#99bdfe;fill-opacity:1;stroke:none;stroke-width:.264583;opacity:1;stroke-linecap:round;stroke-linejoin:round;isolation:isolate"/><g style="fill:#fff;fill-opacity:1;opacity:1"><use xlink:href="#a" width="100%" height="100%" fill="#00a9ff" style="fill:#fff;fill-opacity:1" transform="matrix(.43051 0 0 .43051 16.682 18.562)"/><use xlink:href="#b" width="100%" height="100%" fill="#00a9ff" style="fill:#fff;fill-opacity:1" transform="matrix(.43051 0 0 .43051 23.708 15.743)"/><use xlink:href="#c" width="100%" height="100%" fill="#00a9ff" style="fill:#fff;fill-opacity:1" transform="matrix(.43051 0 0 .43051 18.469 32.311)"/></g></g></svg>
